X: 305669
M: 6/8
L: 1/8
K: G	% and Em in strain 3
d2d e2d | B2B d2c | A2A AGA | B3 G2 B/c/ |\
d2d e2d | B2B d2c | A2A AGA | G3 z2 H|]
g |\
f2f fef | g3 d2e | c2d B2c | A^cd D2 g |\
f2f fef | g3 e2g | fed cde | dce d2"^D.C."B/c/ |]
e2e g2g | f2^d B2B | c2A F2A | GFG E2 B |\
e2e g2g | f2d B2a | c'2a f2^d | e3 "^D.C."e2 |]


